X:91
T:Shew's the Way to Wallington
Z:Jack Campin, http://www.campin.me.uk/
S:Northumbrian Minstrelsy
M:9/8
L:1/8
K:G
B2f    ede    f3 |cAf    cAA ABc|B2d    fef    g3 |dBg    dBG ABc:|
dBd    cAc    B2G|Acf    cAA ABc|dBd    cAc    B2G|dBg    dBG ABc:|
B/c/dg B/c/dg B2G|A/B/cf cAc ABc|B/c/dg B/c/dg B2G|B/c/dg dBG ABc:|
G2g    fed    f3 |cAf    cAc ABc|G2g    fef    g3 |B/c/dg dBG ABc:|

